svgs/syncthing.svg

<svg id="Layer_1" data-name="Layer 1" xmlns="http://www.w3.org/2000/svg" viewBox="0 0 24 24">
  <path d="M22.16871,8.50966a1.92282,1.92282,0,0,0-2.15858-2.51392,9.99633,9.99633,0,0,0-17.9913,6.00431c0,.206.00826.41.0206.613a1.88349,1.88349,0,0,0-.68443.6718A1.91015,1.91015,0,0,0,2.93914,16.183,9.98691,9.98691,0,0,0,16.9039,20.7209a1.923,1.923,0,0,0,2.84526-2.38467A9.97074,9.97074,0,0,0,21.6477,9.30755,1.912,1.912,0,0,0,22.16871,8.50966ZM12.01888,3.2848A8.70257,8.70257,0,0,1,18.885,6.64205a1.9211,1.9211,0,0,0-.33557,1.92723L14.88218,11.6152a1.9013,1.9013,0,0,0-2.00682.04222,1.86327,1.86327,0,0,0-.82522,1.132l-7.31371.67536a1.95738,1.95738,0,0,0-.74759-.84375,1.95137,1.95137,0,0,0-.67554-.2396c-.00549-.12656-.00967-.25347-.00967-.38137A8.72506,8.72506,0,0,1,12.01888,3.2848ZM4.17245,15.79086a1.87051,1.87051,0,0,0,.6896-1.04745l7.30436-.67449a1.94636,1.94636,0,0,0,.1308.24375,1.925,1.925,0,0,0,2.12032.81961l1.995,2.87708a1.88783,1.88783,0,0,0-.34666.95,1.93381,1.93381,0,0,0,.077.71615A8.70929,8.70929,0,0,1,4.17245,15.79086Zm16.56169-3.79081a8.67017,8.67017,0,0,1-1.88485,5.40341,1.95525,1.95525,0,0,0-.68485-.2,1.99017,1.99017,0,0,0-.69928.06938l-1.9937-2.875a1.91613,1.91613,0,0,0,.24268-1.80343l3.66525-3.04426a1.92212,1.92212,0,0,0,1.07527.25807A8.70118,8.70118,0,0,1,20.73414,12.00005Z"/>
</svg>

<svg xmlns="http://www.w3.org/2000/svg" data-name="Layer 1" viewBox="0 0 24 24"><path d="M22.169 8.51a1.923 1.923 0 0 0-2.159-2.514A9.996 9.996 0 0 0 2.02 12c0 .206.008.41.02.613a1.883 1.883 0 0 0-.684.672 1.91 1.91 0 0 0 1.584 2.898 9.987 9.987 0 0 0 13.965 4.538 1.923 1.923 0 0 0 2.845-2.385 9.97 9.97 0 0 0 1.899-9.028 1.912 1.912 0 0 0 .52-.798m-10.15-5.225a8.703 8.703 0 0 1 6.866 3.357 1.921 1.921 0 0 0-.336 1.927l-3.667 3.046a1.901 1.901 0 0 0-2.007.042 1.863 1.863 0 0 0-.825 1.132l-7.314.676a1.957 1.957 0 0 0-.747-.844 1.951 1.951 0 0 0-.676-.24 8.786 8.786 0 0 1-.01-.38 8.725 8.725 0 0 1 8.716-8.716M4.172 15.79a1.87 1.87 0 0 0 .69-1.048l7.304-.674a1.946 1.946 0 0 0 .131.244 1.925 1.925 0 0 0 2.12.82l1.996 2.876a1.888 1.888 0 0 0-.347.95 1.934 1.934 0 0 0 .077.717 8.71 8.71 0 0 1-11.97-3.885ZM20.734 12a8.67 8.67 0 0 1-1.885 5.403 1.955 1.955 0 0 0-.685-.2 1.99 1.99 0 0 0-.699.07l-1.994-2.875a1.916 1.916 0 0 0 .243-1.804L19.38 9.55a1.922 1.922 0 0 0 1.076.258 8.701 8.701 0 0 1 .28 2.192"/></svg>
